<?xml version="1.0" encoding="UTF-8"?>
<map version="1.10" tiledversion="1.10.2" orientation="orthogonal" renderorder="right-down" width="32" height="24" tilewidth="32" tileheight="32" infinite="0" nextlayerid="3" nextobjectid="11">
 <tileset firstgid="1" source="../assets/tileset.tsx"/>
 <layer id="1" name="ground" width="32" height="24">
  <data encoding="csv">
1,1,1,1,1,1,1,1,1,1,1,1,1,1,1,1,1,1,1,1,1,1,1,1,1,1,1,1,1,1,1,1,
1,1,1,1,3,3,1,3,1,1,1,1,1,3,1,1,1,1,1,1,1,1,1,1,1,1,1,1,1,1,1,1,
1,3,3,3,3,1,1,3,1,3,1,3,3,1,1,1,1,1,1,1,1,1,1,1,1,1,1,1,1,1,1,1,
1,1,1,1,1,1,1,1,1,1,3,1,1,3,1,1,1,1,1,1,1,6,6,6,6,6,6,6,1,1,1,1,
1,3,3,3,3,1,3,3,1,3,1,1,1,1,1,1,1,1,1,1,6,6,2,2,2,2,2,6,6,1,1,1,
1,3,1,3,1,1,3,3,1,3,3,3,1,3,1,1,1,1,1,6,6,2,2,2,2,2,2,2,6,6,1,1,
1,1,1,3,3,1,3,1,1,1,3,3,1,3,1,1,1,1,1,6,6,2,2,2,2,2,2,2,6,6,1,1,
1,1,3,1,1,1,1,1,1,1,1,1,3,1,1,1,1,1,1,6,6,2,2,2,2,2,2,2,6,6,1,1,
1,1,1,3,3,3,1,3,1,1,1,1,3,1,1,1,1,1,1,1,6,6,2,2,2,2,2,6,6,1,1,1,
1,3,1,1,3,1,1,1,1,1,1,3,1,1,1,1,1,1,1,1,1,6,6,6,6,6,6,6,1,1,1,1,
1,1,3,1,1,1,3,1,3,3,1,3,1,1,1,1,1,1,1,1,1,1,1,1,1,1,1,1,1,1,1,1,
1,1,1,1,1,1,1,1,1,1,1,1,1,1,1,1,1,1,1,1,1,1,1,1,1,1,1,1,1,1,1,1,
1,1,1,1,1,1,1,1,1,1,1,1,1,1,1,1,1,1,1,1,1,1,1,1,1,1,1,1,1,1,1,1,
1,1,1,1,5,1,1,1,1,5,1,1,1,1,1,1,1,1,1,1,1,1,1,1,1,1,1,1,1,1,1,1,
1,1,1,1,5,1,1,1,1,5,1,1,1,1,1,1,1,1,7,7,7,7,7,7,1,1,1,1,1,1,1,1,
1,1,1,1,1,1,1,1,1,5,1,1,1,1,1,1,1,1,7,8,8,8,8,7,1,1,1,1,1,1,1,1,
1,1,1,1,1,1,1,1,1,5,1,1,1,1,1,1,1,1,7,8,8,8,8,7,1,1,1,1,1,1,1,1,
1,1,1,1,1,1,1,1,1,5,1,1,1,1,1,1,1,1,7,8,8,8,8,7,1,1,1,1,1,1,1,1,
1,1,1,1,5,1,1,1,1,5,1,1,1,1,1,1,1,1,7,7,8,7,7,7,1,1,1,1,1,1,1,1,
1,1,1,1,5,1,1,1,1,1,1,1,1,1,1,1,1,1,1,1,1,1,1,1,1,7,7,8,7,7,1,1,
1,1,1,1,5,1,1,1,1,1,1,1,1,1,1,1,1,1,1,1,1,1,1,1,1,7,8,8,8,7,1,1,
1,1,1,1,5,1,1,1,1,5,1,1,1,1,1,1,1,1,1,1,1,1,1,1,1,7,8,8,8,7,1,1,
1,1,1,1,5,1,1,1,1,5,1,1,1,1,1,1,1,1,1,1,1,1,1,1,1,7,7,7,7,7,1,1,
1,1,1,1,1,1,1,1,1,1,1,1,1,1,1,1,1,1,1,1,1,1,1,1,1,1,1,1,1,1,1,1
</data>
 </layer>
 <objectgroup id="2" name="interact">
   <object id="1" name="welcome_sign" type="sign" x="480" y="352" width="32" height="32">
    <properties>
     <property name="text" value="Welcome to jjexplore! Press E to read signs."/>
    </properties>
   </object>
   <object id="2" name="forest_sign" type="sign" x="192" y="352" width="32" height="32">
    <properties>
     <property name="text" value="Forest of Whispers - watch out for trees."/>
    </properties>
   </object>
   <object id="3" name="forts_sign" type="sign" x="640" y="352" width="32" height="32">
    <properties>
     <property name="text" value="Forts ahead. Try to find the doorways."/>
    </properties>
   </object>
   <object id="4" name="forest_chest" type="chest" x="384" y="128" width="32" height="32">
    <properties>
     <property name="text" value="You found 5 gold pieces."/>
     <property name="item" value="gold:5"/>
    </properties>
   </object>
   <object id="5" name="fort1_door" type="door" x="640" y="576" width="32" height="32">
    <properties>
     <property name="text" value="The door is locked."/>
    </properties>
   </object>
   <object id="6" name="guide" type="npc" x="544" y="384" width="32" height="32">
    <properties>
     <property name="text" value="Hi there! Welcome to the overworld.|Try exploring the forest to the west.|There's a chest hidden somewhere in the trees."/>
    </properties>
   </object>
   <object id="7" name="fisher" type="npc" x="672" y="128" width="32" height="32">
    <properties>
     <property name="text" value="The lake is too cold for swimming today.|But the fishing is great!"/>
    </properties>
   </object>
   <object id="8" name="lonely_apple" type="item" x="160" y="512" width="32" height="32">
    <properties>
     <property name="item" value="apple"/>
    </properties>
   </object>
   <object id="9" name="shore_potion" type="item" x="896" y="160" width="32" height="32">
    <properties>
     <property name="item" value="potion"/>
    </properties>
   </object>
   <object id="10" name="fort2_entrance" type="transition" x="864" y="608" width="32" height="32">
    <properties>
     <property name="target_map" value="fort_interior.tmx"/>
     <property name="target_tx" type="int" value="5"/>
     <property name="target_ty" type="int" value="7"/>
    </properties>
   </object>
  </objectgroup>
</map>
